icons/openzfs.svg

<!--
  - The MIT License (MIT)
  -
  - Copyright (c) 2015-2024 Elior "Mallowigi" Boukhobza
  -
  - Permission is hereby granted, free of charge, to any person obtaining a copy
  - of this software and associated documentation files (the "Software"), to deal
  - in the Software without restriction, including without limitation the rights
  - to use, copy, modify, merge, publish, distribute, sublicense, and/or sell
  - copies of the Software, and to permit persons to whom the Software is
  - furnished to do so, subject to the following conditions:
  -
  - The above copyright notice and this permission notice shall be included in all
  - copies or substantial portions of the Software.
  -
  - THE SOFTWARE IS PROVIDED "AS IS", WITHOUT WARRANTY OF ANY KIND, EXPRESS OR
  - IMPLIED, INCLUDING BUT NOT LIMITED TO THE WARRANTIES OF MERCHANTABILITY,
  - FITNESS FOR A PARTICULAR PURPOSE AND NONINFRINGEMENT. IN NO EVENT SHALL THE
  - AUTHORS OR COPYRIGHT HOLDERS BE LIABLE FOR ANY CLAIM, DAMAGES OR OTHER
  - LIABILITY, WHETHER IN AN ACTION OF CONTRACT, TORT OR OTHERWISE, ARISING FROM,
  - OUT OF OR IN CONNECTION WITH THE SOFTWARE OR THE USE OR OTHER DEALINGS IN THE
  - SOFTWARE.
  -
  -->

<svg version="1.1" xmlns="http://www.w3.org/2000/svg" viewBox="0 0 512 512" width="16px" height="16px">
  <path fill="#29667e" data-iconColor="OpenZFS"
        d="M512,38.9866028C512,17.4625149,494.546051,0,473,0L38.9897041,0.0000383C17.4624767,0.0000383,0,17.4625149,0,38.9866028V187.937973h58.1445694L0,324.049469v148.9607849c0,21.5272217,17.4624767,38.9897156,38.9897041,38.9897156h434.0143127c21.546051,0,38.9959717-17.4624939,38.9959717-38.9897156V324.049469h-58.1414185L512,187.937973V38.9866028z M244.0607758,320.010437c-15.844162-9.1343384-15.844162-32.0941467-0.0000153-41.2284851s35.756897,2.3455811,35.756897,20.6142578C279.8176575,317.664856,259.9049377,329.1447754,244.0607758,320.010437z M198.1522217,365.9076538c-15.844162-9.1343384-15.844162-32.0941467,0-41.2284851s35.7568817,2.3455505,35.7568817,20.6142273S213.9963684,375.0419617,198.1522217,365.9076538z M289.9532166,365.9076538c-15.8441467-9.1343384-15.8441467-32.0941467,0-41.2284851s35.756897,2.3455505,35.756897,20.6142273S305.7973633,375.0419617,289.9532166,365.9076538z M152.254715,411.8044434c-15.8441467-9.1343384-15.844162-32.0941467,0-41.2284851s35.7568817,2.3455811,35.7568817,20.6142273C188.0115967,409.4588623,168.098877,420.9387817,152.254715,411.8044434z M244.0654755,411.8044434c-15.844162-9.1343384-15.844162-32.0941467-0.0000153-41.2284851s35.756897,2.3455811,35.756897,20.6142273C279.8223572,409.4588623,259.9096375,420.9387817,244.0654755,411.8044434z M335.8548279,411.8044434c-15.8441772-9.1343384-15.8441772-32.0941467,0-41.2284851c15.8441467-9.1343384,35.7568665,2.3455811,35.7568665,20.6142273C371.6116943,409.4588623,351.6989746,420.9387817,335.8548279,411.8044434z M106.3598175,457.7051392c-15.8441544-9.1343384-15.844162-32.0941467,0-41.2284851s35.7568817,2.3455811,35.7568817,20.6142578C142.1166992,455.3595581,122.2039795,466.8394775,106.3598175,457.7051392z M198.1553192,457.7051392c-15.844162-9.1343384-15.844162-32.0941467,0-41.2284851s35.7568817,2.3455811,35.7568817,20.6142578C233.9122009,455.3595581,213.9994812,466.8394775,198.1553192,457.7051392z M289.9500122,457.7051392c-15.8441467-9.1343384-15.8441467-32.0941467,0-41.2284851s35.756897,2.3455811,35.756897,20.6142578C325.7069092,455.3595581,305.7941895,466.8394775,289.9500122,457.7051392z M381.7464294,457.7051392c-15.8441772-9.1343384-15.8441772-32.0941467-0.0000305-41.2284851c15.8441772-9.1343384,35.756897,2.3455811,35.756897,20.6142578C417.5032959,455.3595581,397.5905762,466.8394775,381.7464294,457.7051392z M249.1623993,223.8081055c-9.0757294-5.2322693-9.0757294-18.3839417,0-23.6162109c9.0757294-5.232254,20.4820099,1.3435822,20.4820099,11.8081055S258.2381287,229.0403595,249.1623993,223.8081055z M219.5825043,194.1750946c-9.0757294-5.232254-9.0757446-18.3839264,0-23.6161957c9.0757294-5.2322693,20.4819946,1.3435822,20.4819946,11.8081055S228.6582336,199.4073639,219.5825043,194.1750946z M278.7352905,194.1750946c-9.0757141-5.232254-9.0757141-18.3839264,0-23.6161957c9.0757446-5.2322693,20.4819946,1.3435822,20.4819946,11.8081055S287.8110352,199.4073639,278.7352905,194.1750946z M308.3105164,164.5592957c-9.0757446-5.232254-9.0757446-18.3839264-0.0000305-23.6161957c9.0757446-5.2322693,20.4820251,1.3435669,20.4820251,11.8081055C328.792511,163.2157288,317.3862305,169.7915649,308.3105164,164.5592957z M249.1623993,164.5592957c-9.0757294-5.232254-9.0757294-18.3839264,0-23.6161957s20.4820099,1.3435669,20.4820099,11.8081055C269.6444092,163.2157288,258.2381287,169.7915649,249.1623993,164.5592957z M190.008606,164.5592957c-9.0757446-5.232254-9.0757446-18.3839264,0-23.6161957c9.0757294-5.2322693,20.4819946,1.3435669,20.4819946,11.8081055C210.4906006,163.2157288,199.0843353,169.7915649,190.008606,164.5592957z M278.7344055,134.9421082c-9.0757446-5.2322693-9.0757446-18.3839493,0-23.6162109c9.0757141-5.2322617,20.4819946,1.3435745,20.4819946,11.8081055S287.8101501,140.1743622,278.7344055,134.9421082z M337.8832092,134.9421082c-9.0757446-5.2322693-9.0757446-18.3839493,0-23.6162109c9.0757141-5.2322617,20.4819946,1.3435745,20.4819946,11.8081055S346.9589233,140.1743622,337.8832092,134.9421082z M219.5821075,134.9421082c-9.0757446-5.2322693-9.0757446-18.3839493-0.0000153-23.6162109c9.0757446-5.2322617,20.4820099,1.3435745,20.4820099,11.8081055S228.6578369,140.1743622,219.5821075,134.9421082z M160.4328003,134.9421082c-9.0757294-5.2322693-9.0757294-18.3839493,0-23.6162109s20.4819946,1.3435745,20.4819946,11.8081055S169.5085449,140.1743622,160.4328003,134.9421082z M249.163208,105.3290024c-9.0757446-5.2322617-9.0757446-18.3839417-0.0000153-23.6162033s20.4820099,1.3435745,20.4820099,11.8080978S258.2389526,110.561264,249.163208,105.3290024z M308.3106995,105.3290024c-9.0757446-5.2322617-9.0757446-18.3839417,0-23.6162033s20.4819946,1.3435745,20.4819946,11.8080978S317.3864441,110.561264,308.3106995,105.3290024z M367.4697876,105.3290024c-9.0757141-5.2322617-9.0757141-18.3839417,0-23.6162033c9.0757446-5.2322617,20.4820251,1.3435745,20.4820251,11.8080978S376.5455322,110.561264,367.4697876,105.3290024z M190.010498,105.3290024c-9.0757294-5.2322617-9.0757294-18.3839417,0-23.6162033s20.4819946,1.3435745,20.4819946,11.8080978S199.0862427,110.561264,190.010498,105.3290024z M130.8569031,105.3290024c-9.075737-5.2322617-9.075737-18.3839417,0-23.6162033s20.4819946,1.3435745,20.4819946,11.8080978S139.9326324,110.561264,130.8569031,105.3290024z M278.7337952,75.7182999c-9.0757141-5.2322617-9.0757446-18.3839378,0-23.6161995s20.4819946,1.3435745,20.4819946,11.8080978S287.8095398,80.9505615,278.7337952,75.7182999z M337.8851013,75.7182999c-9.0757446-5.2322617-9.0757446-18.3839378,0-23.6161995s20.4819946,1.3435745,20.4819946,11.8080978S346.9608459,80.9505615,337.8851013,75.7182999z M397.0476074,75.7182999c-9.0757446-5.2322617-9.0757446-18.3839378,0-23.6161995c9.0757141-5.2322655,20.4819946,1.3435745,20.4819946,11.8080978S406.1233521,80.9505615,397.0476074,75.7182999z M219.5805969,75.7182999c-9.0757294-5.2322617-9.0757294-18.3839378,0-23.6161995c9.0757446-5.2322655,20.4820099,1.3435745,20.4820099,11.8080978S228.6563416,80.9505615,219.5805969,75.7182999z M160.4347992,75.7182999c-9.0757294-5.2322617-9.0757294-18.3839378,0-23.6161995s20.4819946,1.3435745,20.4819946,11.8080978S169.5105438,80.9505615,160.4347992,75.7182999z M101.2794037,75.7182999c-9.075737-5.2322617-9.075737-18.3839378-0.0000076-23.6161995s20.4820023,1.3435745,20.4820023,11.8080978S110.3551407,80.9505615,101.2794037,75.7182999z"/>
</svg>

<svg xmlns="http://www.w3.org/2000/svg" viewBox="0 0 512 512"><path fill="#29667e" d="M512 38.987C512 17.463 494.546 0 473 0H38.99C17.462 0 0 17.463 0 38.987v148.951h58.145L0 324.049V473.01C0 494.537 17.462 512 38.99 512h434.014C494.55 512 512 494.537 512 473.01V324.05h-58.141L512 187.937zM244.06 320.01c-15.843-9.134-15.843-32.094 0-41.228s35.758 2.346 35.758 20.614-19.913 29.749-35.757 20.614m-45.908 45.898c-15.844-9.135-15.844-32.094 0-41.229s35.757 2.346 35.757 20.614-19.913 29.749-35.757 20.615m91.801 0c-15.844-9.135-15.844-32.094 0-41.229s35.757 2.346 35.757 20.614-19.913 29.749-35.757 20.615m-137.698 45.896c-15.844-9.134-15.844-32.094 0-41.228s35.757 2.346 35.757 20.614-19.913 29.749-35.757 20.614m91.81 0c-15.844-9.134-15.844-32.094 0-41.228s35.757 2.346 35.757 20.614-19.912 29.749-35.757 20.614m91.79 0c-15.844-9.134-15.844-32.094 0-41.228s35.757 2.346 35.757 20.614-19.913 29.749-35.757 20.614M106.36 457.705c-15.844-9.134-15.844-32.094 0-41.228s35.757 2.345 35.757 20.614-19.913 29.748-35.757 20.614m91.795 0c-15.844-9.134-15.844-32.094 0-41.228s35.757 2.345 35.757 20.614-19.913 29.748-35.757 20.614m91.795 0c-15.844-9.134-15.844-32.094 0-41.228s35.757 2.345 35.757 20.614-19.913 29.748-35.757 20.614m91.796 0c-15.844-9.134-15.844-32.094 0-41.228 15.845-9.135 35.757 2.345 35.757 20.614s-19.912 29.748-35.757 20.614M249.162 223.808c-9.075-5.232-9.075-18.384 0-23.616 9.076-5.232 20.482 1.343 20.482 11.808s-11.406 17.04-20.482 11.808m-29.58-29.633c-9.075-5.232-9.075-18.384 0-23.616 9.076-5.232 20.482 1.343 20.482 11.808s-11.406 17.04-20.481 11.808m59.153 0c-9.075-5.232-9.075-18.384 0-23.616 9.076-5.232 20.482 1.343 20.482 11.808s-11.406 17.04-20.482 11.808m29.576-29.616c-9.076-5.232-9.076-18.384 0-23.616 9.075-5.232 20.482 1.344 20.482 11.808s-11.407 17.04-20.482 11.808m-59.149 0c-9.075-5.232-9.075-18.384 0-23.616s20.482 1.344 20.482 11.808-11.406 17.04-20.482 11.808m-59.153 0c-9.076-5.232-9.076-18.384 0-23.616 9.075-5.232 20.482 1.344 20.482 11.808s-11.407 17.04-20.482 11.808m88.725-29.617c-9.075-5.232-9.075-18.384 0-23.616 9.076-5.232 20.482 1.343 20.482 11.808s-11.406 17.04-20.482 11.808m59.15 0c-9.077-5.232-9.077-18.384 0-23.616 9.075-5.232 20.481 1.343 20.481 11.808s-11.406 17.04-20.482 11.808m-118.302 0c-9.076-5.232-9.076-18.384 0-23.616s20.482 1.343 20.482 11.808-11.406 17.04-20.482 11.808m-59.15 0c-9.075-5.232-9.075-18.384 0-23.616s20.483 1.343 20.483 11.808-11.406 17.04-20.482 11.808m88.731-29.613c-9.076-5.232-9.076-18.384 0-23.616s20.482 1.343 20.482 11.808-11.406 17.04-20.482 11.808m59.148 0c-9.076-5.232-9.076-18.384 0-23.616s20.482 1.343 20.482 11.808-11.407 17.04-20.482 11.808m59.159 0c-9.076-5.232-9.076-18.384 0-23.616s20.482 1.343 20.482 11.808-11.406 17.04-20.482 11.808m-177.46 0c-9.075-5.232-9.075-18.384 0-23.616s20.482 1.343 20.482 11.808-11.406 17.04-20.482 11.808m-59.153 0c-9.076-5.232-9.076-18.384 0-23.616s20.482 1.343 20.482 11.808-11.406 17.04-20.482 11.808m147.877-29.61c-9.076-5.233-9.076-18.385 0-23.617s20.482 1.344 20.482 11.808-11.406 17.04-20.482 11.808m59.151 0c-9.076-5.233-9.076-18.385 0-23.617s20.482 1.344 20.482 11.808-11.406 17.04-20.482 11.808m59.163 0c-9.076-5.233-9.076-18.385 0-23.617 9.075-5.232 20.482 1.344 20.482 11.808s-11.407 17.04-20.482 11.808m-177.467 0c-9.076-5.233-9.076-18.385 0-23.617 9.075-5.232 20.482 1.344 20.482 11.808s-11.407 17.04-20.482 11.808m-59.146 0c-9.076-5.233-9.076-18.385 0-23.617s20.482 1.344 20.482 11.808-11.406 17.04-20.482 11.808m-59.156 0c-9.075-5.233-9.075-18.385 0-23.617s20.482 1.344 20.482 11.808-11.406 17.04-20.482 11.808" data-iconColor="OpenZFS"/></svg>
